X: 0
T: kimer-i-klokker
L: 1/4
M: 4/4
V: P1 name="SONG_007"
%%MIDI program 1 33
V: P2 name="SONG_007-2"
%%MIDI program 2 28
V: P3 name="SONG_007-3"
%%MIDI program 3 88
V: P4 name="SONG_007-4"
%%MIDI program 4 88
V: P5 name="SONG_007-5"
%%MIDI program 5 51
V: P6 name="SONG_007-6"
%%MIDI program 6 98
V: P7 name="SONG_007-7"
%%MIDI program 7 82
V: P8 name="SONG_007-8"
%%MIDI program 8 26
V: P9 name="SONG_007-9"
%%MIDI program 9 16
V: P10 name="SONG_007-10"
%%MIDI program 10 16
V: P11 name="SONG_007-11"
%%MIDI program 11 120
V: P12 name="Tempo Track"
%%MIDI program 12 -1
K: C
[V: P1]  z4 | [M: 4/4]  ^F,,,/4D,,3/4z/ D,,/ D,,/8D,,3/4-D,,/8 D,,3/8D,,/-D,,/8 | D,,/8^F,,,/8D,,3/4z/ D,,/ D,,3/4D,,/4 D,,/A,,,/ | ^F,,,/4D,,3/4z/ D,,/ D,,2 | ^F,,,/8D,,3/4-D,,/8z/ D,,/ D,,3/4D,,/4 A,,,/D,,3/8F,,/8 | ^F,,,/8D,,3/4-D,,/8z/ D,,/ D,,2 | D,,z/ D,,/ D,,3/4D,,/4 D,,/A,,,/ | B,,,/8G,,,3/4-G,,,/8z/ G,,,/ G,,,2 | ^F,,,/8D,,3/4-D,,/8z/ D,,/ D,,3/4D,,/4 A,,,/D,,/ | ^G,,,/8E,,,3/4-E,,,/8z/ E,,,/ E,,,- E,,,/8E,,,3/4-E,,,/8 | E,,,z/ B,,,/ D,,3/4D,,/4 D,,/D,,3/8E,,,/8 | E,,,z/ E,,,/ E,,, E,,, | E,,,/8A,,,/8A,,,3/4z/ A,,,/ A,,,/8A,,,/-A,,,/8A,,,/4 E,,,/G,,,/4G,,/4 | G,,,z/ G,,,/ G,,,/4D,,3/4- D,, | D,,z/ D,,/ D,,3/4D,,/4 D,,3/8A,,,/8A,,,/ | ^C,,/8C,,/8A,,,3/4z/ A,,,/ A,,,2 | D,,/D,,/z/ D,,/ D,,3/4D,,/4 A,,,/D,,/ | D,,z/ D,,/ D,,2 | A,,,/8^C,,/8A,,,3/4z/ A,,,/ A,,,3/4A,,,/4 G,,,/G,,/8G,,,3/8 | G,,,/8G,,,3/4-G,,,/8z/ G,,,/ G,,,2 | G,,,z/ G,,,/ G,,,3/4G,,,/4 G,,,/G,,/ | G,,,z/ A,,,/ A,,, A,,, | D,,z/ D,,/ D,,/8D,,3/4-D,,/8 D,, | D,,z/ D,,/ D,,/8D,,3/4-D,,/8 D,, | D,,/8D,,3/4-D,,/8z/ D,,/ D,,3/4D,,/4 D,,/D,,/ | D,,z/ D,,/ D,,2 | D,,z/ D,,/ D,,3/4D,,/4 A,,,/D,,/ | D,,z/ D,,/ D,,/8^F,,,/8D,,3/4- D,, | D,,z/ D,,/ D,,3/4D,,/4 D,,/A,,,/ | D,,z/ D,,/8A,,,3/8 G,,,2 | G,,,z/ G,,,/ G,,,/8D,,/-D,,/8D,,/4 D,,/D,,/ | D,,/8D,,3/4-D,,/8z/ D,,/ E,,,- E,,,/8E,,,3/4-E,,,/8 | E,,,z/ E,,,/ E,,,3/4E,,,/4 E,,/E,,,/ | E,,,z/ E,,,/ E,,,2 | E,,,/8E,,,3/4-E,,,/8z/ E,,,/ E,,,/8^C,,/4A,,,3/8A,,,/4 E,,,/A,,,/ | A,,,/8A,,,3/4-A,,,/8z/ A,,,/ A,,,2 | A,,,z/ G,,,/ D,,3/4D,,/4 D,,/D,,3/8D,,/8 | D,,z/ A,,,/ ^C,,/4A,,,3/4- A,,, | A,,,z/ A,,,/ D,,3/4D,,/4 A,,,/D,,/ | D,,z/ D,,/ D,,2 | D,,z/ D,,/ D,,/8^C,,/8A,,,/A,,,/4 A,,,/E,,,/ | A,,,/8A,,,3/4-A,,,/8z/ G,,,/ G,,,2 | G,,,z/ G,,,/ G,,,3/4G,,,/4 G,,,/G,,/ | G,,,z/ G,,,/ ^C,,/8A,,,/4A,,,/-A,,,/8 A,,, | A,,,/8A,,,3/4-A,,,/8z/ G,,,/ D,,3/4D,,/4 D,,/D,,/ | D,,z/ D,,/ D,,/8D,,3/4-D,,/8 D,, | D,,z/ A,,,/ A,,,3/4A,,,/4 A,,,/A,,,/ | A,,,/8A,,,3/4-A,,,/8z/ G,,,/ D,,2 | D,,/8D,,3/4-D,,/8z/ D,,/ D,,3/4D,,/4 D,,/A,,,/ | D,,z/ D,,/z2|]
[V: P2]  z4 | [M: 4/4] z/ D/z/4 D3/4 D3/4D/4z/ D/4D/4 |z/ D/z/4 D3/4 D3/4D/4z/ D/4D/4 |z/ D/z/4 D3/4 D3/4D/4z/ D/4D/4 |z/ D/z/4 D3/4 D3/4D/4z/ D/4D/4 |z/ D/z/4 D3/4 D3/4D/4z/ D/4D/4 |z/ D/z/4 D3/4 D3/4D/4z/ D/4D/4 |z/ G/z/4 G3/4 G3/4G/4z/ G/4G/4 |z/ D/z/4 D3/4 D3/4D/4z/ D/4D/4 |z/ E/z/4 E3/4 E3/4E/4z/ E/4E/4 |z/ E/z/4 B,3/4 D3/4D/4z/ D/4D/4 |z/ E/z/4 E3/4 E3/4E/4z/ E/4E/4 |z/ A,/z/4 A,3/4 A,3/4A,/4z/ A,/4G/4 |z/ G/z/4 G3/4 G3/4D/4z/ D/4D/4 |z/ D/z/4 D3/4 D3/4D/4z/ A,/4A,/4 |z/ A,/z/4 A,3/4 A,3/4A,/4z/ A,/4A,/4 |z/ D/z/4 D3/4 D3/4D/4z/ D/4D/4 |z/ D/z/4 D3/4 D3/4D/4z/ A,/4A,/4 |z/ A,/z/4 A,3/4 A,3/4A,/4z/ G/4G/4 |z/ G/z/4 G3/4 G3/4G/4z/ G/4G/4 |z/ G/z/4 G3/4 G3/4G/4z/ G/4G/4 |z/ G/z/4 A,3/4 A,3/4A,/4z/ G/4G/4 |z/ D/z/4 D3/4 D3/4D/4z/ D/4D/4 |z/ D/z/4 D3/4 D3/4D/4z/ D/4D/4 |z/ D/z/4 D3/4 D3/4D/4z/ D/4D/4 |z/ D/z/4 D3/4 D3/4D/4z/ D/4D/4 |z/ D/z/4 D3/4 D3/4D/4z/ D/4D/4 |z/ D/z/4 D3/4 D3/4D/4z/ D/4D/4 |z/ D/z/4 D3/4 D3/4D/4z/ D/4D/4 |z/ D/z/4 D3/4 G3/4G/4z/ G/4G/4 |z/ G/z/4 G3/4 G3/4D/4z/ D/4D/4 |z/ D/z/4 D3/4 E3/4E/4z/ E/4E/4 |z/ E/z/4 E3/4 E3/4E/4z/ E/4E/4 |z/ E/z/4 E3/4 E3/4E/4z/ E/4E/4 |z/ E/z/4 E3/4 E3/4A,/4z/ A,/4A,/4 |z/ A,/z/4 A,3/4 A,3/4A,/4z/ A,/4A,/4 |z/ A,/z/4 G3/4 D3/4D/4z/ D/4D/4 |z/ D/z/4 D3/4 ^C3/4A,/4z/ A,/4A,/4 |z/ A,/z/4 A,3/4 D3/4D/4z/ D/4D/4 |z/ D/z/4 D3/4 D3/4D/4z/ D/4D/4 |z/ D/z/4 D3/4 D3/4A,/4z/ A,/4A,/4 |z/ A,/z/4 G3/4 G3/4G/4z/ G/4G/4 |z/ G/z/4 G3/4 G3/4G/4z/ G/4G/4 |z/ G/z/4 G3/4 ^C3/4A,/4z/ A,/4A,/4 |z/ A,/z/4 A,3/4 D3/4D/4z/ D/4D/4 |z/ D/z/4 D3/4 D3/4D/4z/ D/4D/4 |z/ D/z/4 D3/4 A,3/4A,/4z/ A,/4A,/4 |z/ A,/z/4 A,3/4 D3/4D/4z/ D/4D/4 |z/ D/z/4 D3/4 D3/4D/4z/ D/4D/4 |z/ D/z/4 D3/4 Dz|]
[V: P3]  z4 | [M: 4/4]  ^F/8D3/4-D/8 Dz/8 D3/4-D/8 E |z/8 D3/4-D/8 Dz/8 D3/4-D/8z/8 E3/4-E/8 | ^F2 F G | A2 ^F [Fd] | ^F/8d3/4-d/8 d3 | ^c4 | B2 d B- | B/8A3/4-A/8 A ^Fz/8 D3/4-D/8 | D2 ^C E- | E/8A3/4-A/8 A ^F3/4-F/8^c/8- c3/4c/8B/8- | B4 | A/8^C3/4-C/8 C3 | G3- G3/4G/8[D/8-^F/8-] | [D3/^F3/] [D3/8F3/8][D/8-F/8-A/8-] [D3/F3/A3/] [D3/8F3/8A3/8][^C/8-E/8-] | [^C4E4] | ^F d ^c B3/4-B/8B/8- | B A Az/8 ^G3/4-G/8 | [^C4A4] | B3/- B3/8^c/8- c3/4c/8d/8- d | d2 ^F- F/8G3/4-G/8 | G/8E3/4-E/8 E3 | D2z2 |z2z/8 [D3/4-^F3/4-][D/8F/8] [DF] |z/8 [D3/4-^F3/4-][D/8F/8]z/8 E3/4-E/8z/8 D3/4-D/8 D | D E3/4-E/8^F/8- F3/ F3/8F/8- | ^F3/4F/8G/8- G3/4G/8A/8- A2 | ^F dz/8 d3/4-d/8 d | d2 ^c2- | ^c2z/8 B3/4-B/8 B | d B A2 | ^F- F/8D3/4-D/8 D2 | ^C E A2 | ^F ^c B2- | B2z/8 [^C3/4-A3/4-][C/8A/8] [CA] | [^C2A2] G2- | G3/ G3/8^F/8- F3/ F3/8[D/8-A/8-] | [D3/A3/] [D3/8A3/8]E/8 ^C2- | ^C3/ C3/8^F/8- F3/4F/8d/8- d3/4d/8c/8- | ^c3/4c/8B/8- B B A | Az/8 ^G3/4A/8 ^C2- | ^C2 B2 | ^c d d2- | d/8^F3/4-F/8 F/8G3/4-G/8z/8 E3/4-E/8 E | E ^Cz/8 D3/4-D/8 D | D2 D/8^F3/4-F/8 F | ^F2 [^C2-E2-] | [^CE] Cz/8 D3/4-D/8 D | D4 | Dz3|]
[V: P4]  z4 | [M: 4/4]  z4 | z4 | z4 | z4 | z4 | z4 |z2 D,2 |z2z/8 C,3/4-C,/8 C, | z4 | z4 | z4 | z4 | z4 | z4 | z4 | z4 | z4 | z4 |z3/z/4 D,/4- D,2 | D,4 | D,z3 | z4 | z4 | z4 | z4 | z4 | z4 | z4 | z4 | D,2z2 | z4 | z4 | z4 | z4 | z4 | z4 | z4 | z4 | z4 | z4 | z4 |z2 D,2- | D,2z2 |z A,z2 | z4 | z4 | z4 | z4 | z4|]
[V: P5]  z4 | [M: 4/4]  ^F/4[D3/4-F3/4-] [DF] [D/8F/8][A,3/4-D3/4-F3/4-][A,/8D/8F/8] [A,3/8D3/8F3/8][A,/-D/-][A,/8D/8] | [A,/8D/8][^F/8A/8][A,3/4-D3/4-F3/4-] [A,3D3F3] | [^F/4A/4][A,3/4-D3/4-F3/4-] [A,2D2F2] [A,3/4D3/4F3/4][A,/8D/8F/8][F/8-A/8-] | [^F/8A/8][A,3/4-D3/4-F3/4-][A,/8D/8F/8] [A,3D3F3] | [^F/8A/8][D3/4-F3/4-][D/8F/8] [DF] [A,3/-D3/-F3/-] [A,3/8D3/8F3/8][F/8A/8] | D2 [D^F] [A,DF] | B,/8[G3/4-B3/4-][G/8B/8] [G3B3] | ^F/8[A,3/4-D3/4-F3/4-][A,/8D/8F/8] [A,3D3F3] | ^G,/8[E3/4-G3/4-][E/8G/8] [E2G2] [E/8G/8][B,3/4-E3/4-G3/4-][B,/8E/8G/8] | [B,E^G] [B,/4E/4G/4]B,3/4 [D3/-^F3/-] [D3/8F3/8]E/8- | E3/ E/4[E/4-^G/4-] [EG] [B,-E-G-] | [B,/8E/8^G/8][A,/8^C/8][A,,3/4-A,3/4-C3/4-] [A,,A,C] [A,,/8A,/8C/8][A,,3/4-=G,3/4-C3/4-][A,,/8G,/8C/8] [A,,3/4G,3/4C3/4]G/4 | G2- G/4D3/4- D | [A,3-D3-^F3-] [A,3/8D3/8F3/8]A,/-A,/8 | [^C/4E/4][A,,3/4-A,3/4-C3/4-] [A,,3A,3C3] | [D/G/]D/ [D^F] [A,2D2F2] | [A,3-D3-^F3-] [A,/D/F/]A,/- | A,/8[^C/8E/8][A,,3/4-A,3/4-C3/4-] [A,,A,C] [A,,3/G,3/C3/] G/ | [G4-B4-] | [G4B4] | [G-B-] [G/8B/8][^C/8E/8][A,,3/4-A,3/4-C3/4-] [A,,A,C] [A,,/G,/C/]G/ | [D2-^F2-] [D/8F/8][D3/4-F3/4-][D/8F/8] [DF] | [D2-^F2-] [D/8F/8]D3/4-D/8 D | D/8[A,3/4-D3/4-][A,/8D/8] [A,D] [D2^F2] | [A,4-D4-^F4-] | [A,4D4^F4] | [A,2-D2-^F2-] [A,/8D/8F/8][F/8A/8][A,3/4-D3/4-F3/4-] [A,DF] | [A,4D4^F4] | [A,3/-D3/-^F3/-] [A,/8D/8F/8]A,3/8 [G2-B2-] | [G2B2] [G/8B/8][D3/4-^F3/4-][D/8F/8] [DF] | [D/8^F/8][A,3/4-D3/4-F3/4-][A,/8D/8F/8] [A,DF] E- E/8[E3/4-^G3/4-][E/8G/8] | [E4^G4] | [E4-^G4-] | [E/8^G/8][B,3/4-E3/4-G3/4-][B,/8E/8G/8] [B,EG] [B,/8E/8G/8][^C/4E/4][A,,/-A,/-C/-][A,,/8A,/8C/8] [A,,A,C] | [E,/8A,/8^C/8][A,,3/4-G,3/4-C3/4-][A,,/8G,/8C/8] [A,,3G,3C3] | [A,,G,^C] [A,,/4G,/4C/4]G/-G/8^F/8 [D3/-F3/-] [D3/8F3/8][A,/8D/8F/8] | [A,-D-^F-] [A,3/8D3/8F3/8]A,/-A,/8 [^C/4E/4][A,,3/4-A,3/4-C3/4-] [A,,A,C] | [A,,3/A,3/^C3/] [A,,3/8A,3/8C3/8][A,/8-D/8-^F/8-] [A,2D2F2] | [A,4-D4-^F4-] | [A,2D2^F2] [A,/8D/8F/8][^C/8E/8][A,,3/4-A,3/4-C3/4-] [A,,A,C] | [E,/8A,/8^C/8][A,,3/4-G,3/4-C3/4-][A,,/8G,/8C/8] [A,,/4G,/4C/4]G3/4 [G2-B2-] | [G4B4] | [G2B2] ^C/8[A,/4C/4][A,,/-A,/-C/-][A,,/8A,/8C/8] [A,,A,C] | [A,,/8A,/8^C/8][A,,3/4-G,3/4-C3/4-][A,,/8G,/8C/8] [A,,3/8G,3/8C3/8]G/-G/8 [D2^F2] | [A,2-D2-^F2-] [A,/8D/8F/8]D3/4-D/8 D | [A,-D-] [A,3/8D3/8]A,/-A,/8 A,2 | A,/8G,3/4-G,/8 G,3/8G/-G/8 [D2-^F2-] | [D/8^F/8][A,3/4-D3/4-F3/4-][A,/8D/8F/8] [A,3D3F3] | z4|]
[V: P6]  z4 | [M: 4/4] z/ d/z/ d'/ ^f'/d'/ a/a'/ |z/ a'/ d'/a/ ^f'/d'/ a/d/ |z/ d/ a/d'/ ^f'/d'/ a/a'/ |z/ a'/ d'/a/ ^f'/d'/ a/d/ |z/ d/z/ d'/ ^f'/d'/ a/a'/ |z d' ^f'/d'/ a/d/ |z/ g/z/ g'/ b'/g'/z |z/ a'/ d'/a/ ^f'/d'/ a/d/ |z/ e/z/ e'/ ^g'/e'/z/ b'/ |z/ b'/ e' ^f'/d'/z/ d/ |z/ e/z/ e'/ ^g'/e'/ b/b'/ |z/ e'/ a/e/ ^c'/g/ e/G/ |z/ g/z/ g'/z/ d'/z |z/ a'/ d'/a/ ^f'/d'/ a/A/ |z/ A/ e/a/ ^c'/a/ e/e'/ |z d' ^f'/d'/ a/d/ |z/ d/ a/d'/ ^f'/d'/ a |z/ e'/ a/e/ ^c'/g/ e/g/ |z/ g/z/ g'/ b'/g'/z |z g' b'/g'/z/ g/ |z/ g/z/ a/ ^c'/a/ e |z d' ^f'/d'/z |z/ d/z/ d'/ ^f'/d'/z |z/ a'/ d'/a/ ^f'/d'/z/ d/ |z/ d/ a/d'/ ^f'/d'/ a/a'/ |z/ a'/ d'/a/ ^f'/d'/ a/d/ |z/ d/ a/d'/ ^f'/d'/ a/a'/ |z/ a'/ d'/a/ ^f'/d'/ a/d/ |z/ d/ a/d'/ b'/g'/z |z g' b'/d'/z/ d/ |z/ d/ a/d'/z/ e'/z |z e' ^g'/e'/z/ e/ |z/ e/z/ e'/ ^g'/e'/z |z/ b'/ e'/b/ ^g'/a/ e/A/ |z/ G/ e/g/ ^c'/g/ e/e'/ |z/ e'/ g ^f'/d'/z/ d/ |z/ d/ a/a/ e'/a/ e/e'/ |z/ e'/ a/e/ ^f'/d'/ a/d/ |z/ d/ a/d'/ ^f'/d'/ a/a'/ |z/ a'/ d'/a/ ^f'/a/ e/A/ |z/ G/ e/g'/ b'/g'/z |z g' b'/g'/z/ g/ |z/ g/z/ g'/z/ a/ e/e'/ |z/ e'/ g ^f'/d'/z/ d/ |z/ d/ a/d'/ ^f'/d'/z |z/ a'/ d'z/ a/z/ A/ |z/ G/z/ g'/ ^f'/d'/z |z/ a'/ d'/a/ ^f'/d'/ a/d/ |z/ d/ a/d'/ ^f'/d'/z|]
[V: P7]  z4 | [M: 4/4]  z4 | z4 | z4 | z4 | z4 | z4 | z4 | z4 | z4 | z4 | z4 | z4 | z4 | z4 | z4 | z4 | z4 | z4 | z4 | z4 | z4 | z4 |z/ ^F/ D2z |z/ D/ A,z2 |z/ D/ A,/^F/- F2 | ^F/F/ D/A,/- A,2 |z/ ^F/ D/A,/- A,z |z/ D/ A,/^F/- F2 |z/ D/ A,/^F/z2 |z/ B/ G2z |z/ ^F/ D/A,/z2 |z/ E/- E/^G/- G2 |z/ E/- E/^G/- G2 | ^G/G/ E/B,/- B,z |z/ ^C/ G,/E,/- E,2 | E,/G,/ E,z2 |z/ D/ A,z2 |z/ ^C/ A,/E,/z2 |z/ ^F/ D/A,/- A,2 | A,/D/ A,/^F/- Fz |z/ G,/ A,,z2 |z/ B/ G3 |z/ B/ Gz2 |z/ G,/ A,,z2 |z/ D/ A,/^F/- Fz |z Dz2 |z G,z2 |z/ D/ A,/^F/- F2 |z/ D/ A,z2|]
[V: P8]  z4 | [M: 4/4]  z4 | z4 | z4 | z4 | z4 | z4 | z4 | z4 | z4 | z4 | z4 | z4 | z4 | z4 | z4 | z4 | z4 | z4 | z4 | z4 | z4 | z4 | D,3z | z4 | [A,4-D4-] | [A,4D4] | [D,3A,3]z | z4 | [A,2D2]z2 | z4 | D,z3 | z4 | E4- | Ez3 | [A,,E,]z3 | z4 | [A,2D2]z2 | z4 | [D,4-A,4-] | [D,3A,3]z | [E,A,]z3 | z4 | G,2z2 | z4 | [A,3D3]z | z4 | A,,z3 | z4 | z4|]
[V: P9]  z4 | [M: 4/4]  z4 | z4 | z4 | z4 | z4 | z4 | z4 | z4 | z4 | z4 | z4 | z4 | z4 | z4 | z4 | z4 | z4 | z4 | z4 | z4 | z4 | z4 | A,/8B,3/8B,/ [B,/^d/]B,/ B,/B,/4b/4 [B,/d/]B,/ | B,/B,/ [B,/^d/]B,/ B,/B,/4b/4 [B,/d/]B,/ | B,/B,/ [B,/^d/]B,/ B,/B,/4b/4 [B,/d/]B,/ | B,/B,/ [B,/^d/]B,/ B,/B,/4b/4 [B,/d/]B,/ | B,/B,/ [B,/^d/]B,/ B,/B,/4b/4 [B,/d/]B,/ | B,/B,/ [B,/^d/]B,/ B,/B,/4b/4 [B,/d/]B,/ | B,/B,/ [B,/^d/]B,/ B,/B,/4b/4 [B,/d/]B,/ | B,/B,/ [B,/^d/]B,/ B,/B,/4b/4 [B,/d/]B,/ | B,/B,/ [B,/^d/]B,/ B,/B,/4b/4 [B,/d/]B,/ | B,/B,/ [B,/^d/]B,/ B,/B,/4b/4 [B,/d/]B,/ | B,/B,/ [B,/^d/]B,/ B,/B,/4b/4 [B,/d/]B,/ | B,/B,/ [B,/^d/]B,/ B,/B,/4b/4 [B,/d/]B,/ | B,/B,/ [B,/^d/]B,/ B,/B,/4b/4 [B,/d/]B,/ | B,/B,/ [B,/^d/]B,/ B,/B,/4b/4 [B,/d/]B,/ | B,/B,/ [B,/^d/]B,/ B,/B,/4b/4 [B,/d/]B,/ | B,/B,/ [B,/^d/]B,/ B,/B,/4b/4 [B,/d/]B,/ | B,/B,/ [B,/^d/]B,/ B,/B,/4b/4 [B,/d/]B,/ | B,/B,/ [B,/^d/]B,/ B,/B,/4b/4 [B,/d/]B,/ | B,/B,/ [B,/^d/]B,/ B,/B,/4b/4 [B,/d/]B,/ | B,/B,/ [B,/^d/]B,/ B,/B,/4b/4 [B,/d/]B,/ | B,/B,/ [B,/^d/]B,/ B,/B,/4b/4 [B,/d/]B,/ | B,/B,/ [B,/^d/]B,/ B,/B,/4b/4 [B,/d/]B,/ | B,/B,/ [B,/^d/]B,/ B,/B,/4b/4 [B,/d/]B,/ | B,/B,/ [B,/^d/]B,/ B,/B,/4b/4 [B,/d/]B,/ | B,/B,/ [B,/^d/]B,/ B,/B,/4b/4 [B,/d/]B,/ | B,/B,/ [B,/^d/]B,/ B,/B,/4b/4 [B,/d/]B,/ | B,/B,/ [B,/^d/]B,/ B,/B,/4b/4z|]
[V: P10]  z4 | [M: 4/4]  [C,,/4^G,,/4]G,,/4G,,/4G,,/4 [D,,/4G,,/4]G,,/4[C,,/4G,,/4]G,,/4 [C,,/4G,,/4]G,,/4G,,/4G,,/4 [D,,/4G,,/4]G,,/4G,,/4G,,/4 | [C,,/4^G,,/4]G,,/4G,,/4G,,/4 [D,,/4G,,/4]G,,/4[C,,/4G,,/4]G,,/4 [C,,/4G,,/4]G,,/4G,,/4G,,/4 [D,,/4G,,/4]G,,/4G,,/4G,,/4 | [C,,/4^G,,/4]G,,/4G,,/4G,,/4 [D,,/4G,,/4]G,,/4[C,,/4G,,/4]G,,/4 [C,,/4G,,/4]G,,/4G,,/4G,,/4 [D,,/4G,,/4]G,,/4G,,/4G,,/4 | [C,,/4^G,,/4]G,,/4G,,/4G,,/4 [D,,/4G,,/4]G,,/4[C,,/4G,,/4]G,,/4 [C,,/4G,,/4]G,,/4G,,/4G,,/4 [D,,/4G,,/4]G,,/4G,,/4G,,/4 | [C,,/4^G,,/4]G,,/4G,,/4G,,/4 [D,,/4G,,/4]G,,/4[C,,/4G,,/4]G,,/4 [C,,/4G,,/4]G,,/4G,,/4G,,/4 [D,,/4G,,/4]G,,/4G,,/4G,,/4 | [C,,/4^G,,/4]G,,/4G,,/4G,,/4 [D,,/4G,,/4]G,,/4[C,,/4G,,/4]G,,/4 [C,,/4G,,/4]G,,/4G,,/4G,,/4 [D,,/4G,,/4]G,,/4G,,/4G,,/4 | [C,,/4^G,,/4]G,,/4G,,/4G,,/4 [D,,/4G,,/4]G,,/4[C,,/4G,,/4]G,,/4 [C,,/4G,,/4]G,,/4G,,/4G,,/4 [D,,/4G,,/4]G,,/4G,,/4G,,/4 | [C,,/4^G,,/4]G,,/4G,,/4G,,/4 [D,,/4G,,/4]G,,/4[C,,/4G,,/4]G,,/4 [C,,/4G,,/4]G,,/4G,,/4G,,/4 [D,,/4G,,/4]G,,/4G,,/4G,,/4 | [C,,/4^G,,/4]G,,/4G,,/4G,,/4 [D,,/4G,,/4]G,,/4[C,,/4G,,/4]G,,/4 [C,,/4G,,/4]G,,/4G,,/4G,,/4 [D,,/4G,,/4]G,,/4G,,/4G,,/4 | [C,,/4^G,,/4]G,,/4G,,/4G,,/4 [D,,/4G,,/4]G,,/4[C,,/4G,,/4]G,,/4 [C,,/4G,,/4]G,,/4G,,/4G,,/4 [D,,/4G,,/4]G,,/4G,,/4G,,/4 | [C,,/4^G,,/4]G,,/4G,,/4G,,/4 [D,,/4G,,/4]G,,/4[C,,/4G,,/4]G,,/4 [C,,/4G,,/4]G,,/4G,,/4G,,/4 [D,,/4G,,/4]G,,/4G,,/4G,,/4 | [C,,/4^G,,/4]G,,/4G,,/4G,,/4 [D,,/4G,,/4]G,,/4[C,,/4G,,/4]G,,/4 [C,,/4G,,/4]G,,/4G,,/4G,,/4 [D,,/4G,,/4]G,,/4G,,/4G,,/4 | [C,,/4^G,,/4]G,,/4G,,/4G,,/4 [D,,/4G,,/4]G,,/4[C,,/4G,,/4]G,,/4 [C,,/4G,,/4]G,,/4G,,/4G,,/4 [D,,/4G,,/4]G,,/4G,,/4G,,/4 | [C,,/4^G,,/4]G,,/4G,,/4G,,/4 [D,,/4G,,/4]G,,/4[C,,/4G,,/4]G,,/4 [C,,/4G,,/4]G,,/4G,,/4G,,/4 [D,,/4G,,/4]G,,/4G,,/4G,,/4 | [C,,/4^G,,/4]G,,/4G,,/4G,,/4 [D,,/4G,,/4]G,,/4[C,,/4G,,/4]G,,/4 [C,,/4G,,/4]G,,/4G,,/4G,,/4 [D,,/4G,,/4]G,,/4G,,/4G,,/4 | [C,,/4^G,,/4]G,,/4G,,/4G,,/4 [D,,/4G,,/4]G,,/4[C,,/4G,,/4]G,,/4 [C,,/4G,,/4]G,,/4G,,/4G,,/4 [D,,/4G,,/4]G,,/4G,,/4G,,/4 | [C,,/4^G,,/4]G,,/4G,,/4G,,/4 [D,,/4G,,/4]G,,/4[C,,/4G,,/4]G,,/4 [C,,/4G,,/4]G,,/4G,,/4G,,/4 [D,,/4G,,/4]G,,/4G,,/4G,,/4 | [C,,/4^G,,/4]G,,/4G,,/4G,,/4 [D,,/4G,,/4]G,,/4[C,,/4G,,/4]G,,/4 [C,,/4G,,/4]G,,/4G,,/4G,,/4 [D,,/4G,,/4]G,,/4G,,/4G,,/4 | [C,,/4^G,,/4]G,,/4G,,/4G,,/4 [D,,/4G,,/4]G,,/4[C,,/4G,,/4]G,,/4 [C,,/4G,,/4]G,,/4G,,/4G,,/4 [D,,/4G,,/4]G,,/4G,,/4G,,/4 | [C,,/4^G,,/4]G,,/4G,,/4G,,/4 [D,,/4G,,/4]G,,/4[C,,/4G,,/4]G,,/4 [C,,/4G,,/4]G,,/4G,,/4G,,/4 [D,,/4G,,/4]G,,/4G,,/4G,,/4 | [C,,/4^G,,/4]G,,/4G,,/4G,,/4 [D,,/4G,,/4]G,,/4[C,,/4G,,/4]G,,/4 [C,,/4G,,/4]G,,/4G,,/4G,,/4 [D,,/4G,,/4]G,,/4G,,/4G,,/4 | [C,,/4^G,,/4]G,,/4G,,/4G,,/4 [D,,/4G,,/4]G,,/4[C,,/4G,,/4]G,,/4 [C,,/4G,,/4]G,,/4[D,,/4G,,/4]G,,/4 [D,,/4G,,/4][G,,/4A,,/4][F,,/4G,,/4]G,,/4 | [C,,/4^G,,/4]G,,/4G,,/4G,,/4 [D,,/4G,,/4]G,,/4[C,,/4G,,/4]G,,/4 [C,,/4G,,/4]G,,/4G,,/4G,,/4 [D,,/4G,,/4]G,,/4G,,/4G,,/4 | [C,,/4^G,,/4]G,,/4G,,/4G,,/4 [D,,/4G,,/4]G,,/4[C,,/4G,,/4]G,,/4 [C,,/4G,,/4]G,,/4G,,/4G,,/4 [D,,/4G,,/4]G,,/4G,,/4G,,/4 | [C,,/4^G,,/4]G,,/4G,,/4G,,/4 [D,,/4G,,/4]G,,/4[C,,/4G,,/4]G,,/4 [C,,/4G,,/4]G,,/4G,,/4G,,/4 [D,,/4G,,/4]G,,/4G,,/4G,,/4 | [C,,/4^G,,/4]G,,/4G,,/4G,,/4 [D,,/4G,,/4]G,,/4[C,,/4G,,/4]G,,/4 [C,,/4G,,/4]G,,/4G,,/4G,,/4 [D,,/4G,,/4]G,,/4G,,/4G,,/4 | [C,,/4^G,,/4]G,,/4G,,/4G,,/4 [D,,/4G,,/4]G,,/4[C,,/4G,,/4]G,,/4 [C,,/4G,,/4]G,,/4G,,/4G,,/4 [D,,/4G,,/4]G,,/4G,,/4G,,/4 | [C,,/4^G,,/4]G,,/4G,,/4G,,/4 [D,,/4G,,/4]G,,/4[C,,/4G,,/4]G,,/4 [C,,/4G,,/4]G,,/4G,,/4G,,/4 [D,,/4G,,/4]G,,/4G,,/4G,,/4 | [C,,/4^G,,/4]G,,/4G,,/4G,,/4 [D,,/4G,,/4]G,,/4[C,,/4G,,/4]G,,/4 [C,,/4G,,/4]G,,/4G,,/4G,,/4 [D,,/4G,,/4]G,,/4G,,/4G,,/4 | [C,,/4^G,,/4]G,,/4G,,/4G,,/4 [D,,/4G,,/4]G,,/4[C,,/4G,,/4]G,,/4 [C,,/4G,,/4]G,,/4G,,/4G,,/4 [D,,/4G,,/4]G,,/4G,,/4G,,/4 | [C,,/4^G,,/4]G,,/4G,,/4G,,/4 [D,,/4G,,/4]G,,/4[C,,/4G,,/4]G,,/4 [C,,/4G,,/4]G,,/4G,,/4G,,/4 [D,,/4G,,/4]G,,/4G,,/4G,,/4 | [C,,/4^G,,/4]G,,/4G,,/4G,,/4 [D,,/4G,,/4]G,,/4[C,,/4G,,/4]G,,/4 [C,,/4G,,/4]G,,/4G,,/4G,,/4 [D,,/4G,,/4]G,,/4G,,/4G,,/4 | [C,,/4^G,,/4]G,,/4G,,/4G,,/4 [D,,/4G,,/4]G,,/4[C,,/4G,,/4]G,,/4 [C,,/4G,,/4]G,,/4G,,/4G,,/4 [D,,/4G,,/4]G,,/4G,,/4G,,/4 | [C,,/4^G,,/4]G,,/4G,,/4G,,/4 [D,,/4G,,/4]G,,/4[C,,/4G,,/4]G,,/4 [C,,/4G,,/4]G,,/4G,,/4G,,/4 [D,,/4G,,/4]G,,/4G,,/4G,,/4 | [C,,/4^G,,/4]G,,/4G,,/4G,,/4 [D,,/4G,,/4]G,,/4[C,,/4G,,/4]G,,/4 [C,,/4G,,/4]G,,/4G,,/4G,,/4 [D,,/4G,,/4]G,,/4G,,/4G,,/4 | [C,,/4^G,,/4]G,,/4G,,/4G,,/4 [D,,/4G,,/4]G,,/4[C,,/4G,,/4]G,,/4 [C,,/4G,,/4]G,,/4G,,/4G,,/4 [D,,/4G,,/4]G,,/4G,,/4G,,/4 | [C,,/4^G,,/4]G,,/4G,,/4G,,/4 [D,,/4G,,/4]G,,/4[C,,/4G,,/4]G,,/4 [C,,/4G,,/4]G,,/4G,,/4G,,/4 [D,,/4G,,/4]G,,/4G,,/4G,,/4 | [C,,/4^G,,/4]G,,/4G,,/4G,,/4 [D,,/4G,,/4]G,,/4[C,,/4G,,/4]G,,/4 [C,,/4G,,/4]G,,/4G,,/4G,,/4 [D,,/4G,,/4]G,,/4G,,/4G,,/4 | [C,,/4^G,,/4]G,,/4G,,/4G,,/4 [D,,/4G,,/4]G,,/4[C,,/4G,,/4]G,,/4 [C,,/4G,,/4]G,,/4G,,/4G,,/4 [D,,/4G,,/4]G,,/4G,,/4G,,/4 | [C,,/4^G,,/4]G,,/4G,,/4G,,/4 [D,,/4G,,/4]G,,/4[C,,/4G,,/4]G,,/4 [C,,/4G,,/4]G,,/4G,,/4G,,/4 [D,,/4G,,/4]G,,/4G,,/4G,,/4 | [C,,/4^G,,/4]G,,/4G,,/4G,,/4 [D,,/4G,,/4]G,,/4[C,,/4G,,/4]G,,/4 [C,,/4G,,/4]G,,/4G,,/4G,,/4 [D,,/4G,,/4]G,,/4G,,/4G,,/4 | [C,,/4^G,,/4]G,,/4G,,/4G,,/4 [D,,/4G,,/4]G,,/4[C,,/4G,,/4]G,,/4 [C,,/4G,,/4]G,,/4G,,/4G,,/4 [D,,/4G,,/4]G,,/4G,,/4G,,/4 | [C,,/4^G,,/4]G,,/4G,,/4G,,/4 [D,,/4G,,/4]G,,/4[C,,/4G,,/4]G,,/4 [C,,/4G,,/4]G,,/4G,,/4G,,/4 [D,,/4G,,/4]G,,/4G,,/4G,,/4 | [C,,/4^G,,/4]G,,/4G,,/4G,,/4 [D,,/4G,,/4]G,,/4[C,,/4G,,/4]G,,/4 [C,,/4G,,/4]G,,/4G,,/4G,,/4 [D,,/4G,,/4]G,,/4G,,/4G,,/4 | [C,,/4^G,,/4]G,,/4G,,/4G,,/4 [D,,/4G,,/4]G,,/4[C,,/4G,,/4]G,,/4 [C,,/4G,,/4]G,,/4G,,/4G,,/4 [D,,/4G,,/4]G,,/4G,,/4G,,/4 | [C,,/4^G,,/4]G,,/4G,,/4G,,/4 [D,,/4G,,/4]G,,/4[C,,/4G,,/4]G,,/4 [C,,/4G,,/4]G,,/4G,,/4G,,/4 [D,,/4G,,/4]G,,/4G,,/4G,,/4 | [C,,/4^G,,/4]G,,/4G,,/4G,,/4 [D,,/4G,,/4]G,,/4[C,,/4G,,/4]G,,/4 [C,,/4G,,/4]G,,/4G,,/4G,,/4 [D,,/4G,,/4]G,,/4G,,/4G,,/4 | [C,,/4^G,,/4]G,,/4G,,/4G,,/4 [D,,/4G,,/4]G,,/4[C,,/4G,,/4]G,,/4 [C,,/4G,,/4]G,,/4G,,/4G,,/4 [D,,/4G,,/4]G,,/4G,,/4G,,/4 | [C,,/4^G,,/4]G,,/4G,,/4G,,/4 [D,,/4G,,/4]G,,/4[C,,/4G,,/4]G,,/4 [C,,/4G,,/4]G,,/4G,,/4G,,/4z|]
[V: P11]  z4 | [M: 4/4]  ^F/8D3/4-D/8 D D/8A3/4-A/8 A | [^F/8A/8]D3/4-D/8 D3 | [^F/4A/4]D3/4- D3 |z/8 D3/4-D/8 D3 | D2 A3/- A3/8D/8- | D3/ D3/8^F/8- F A | [G4B4] | ^F/8[D3/4-A3/4-][D/8A/8] [D3A3] | ^G/8E3/4-E/8 E2 B- | B2 [D3/-^F3/-] [D3/8F3/8]E/8- | E3/ E/4^G/4- G B |z/8 [A,3/4-^C3/4-E3/4-][A,/8C/8E/8] [A,CE] [A,/8C/8E/8]G3/4-G/8 G | G3/ G3/8D/8- D3/ D3/8[^F/8-A/8-] | [^F3A3]z3/4z/8 [^C/8-E/8-] | [^C/4E/4]A,3/4- A,3 | [DG] ^F A3/- A3/8[D/8-F/8-A/8-] | [D4^F4A4] | [^C/8E/8]A,3/4-A,/8 A, G3/- G3/8[G/8-B/8-] | [G4B4] | [G4-B4-] | [GB] [^C/4E/4]A,3/4- A, G3/4-G/8^F/8 | D4- | D2z/8 D3/4-D/8 D | D/8A3/4-A/8 A ^F2 | A4- | A4 | A2 [^F/8A/8]D3/4-D/8 D | D4 | D2 [G2-B2-] | [G2B2] ^F/8D3/4-D/8 D | D/8A3/4-A/8 A E ^G- | ^G4 | ^G4 | B2 ^C/8E/4A,/-A,/8 A, | G4- | G3/ G3/8[D/8-^F/8-] [D3/F3/] [D3/8F3/8]A/8- | A3/ A3/8[^C/8-E/8-] [C/4E/4]A,3/4- A, | A,z3/4z/8 [D/8-^F/8-A/8-] [D2F2A2] | [D4^F4A4] | [D2^F2A2] [^C/8E/8]A,3/4-A,/8 A, | G3/- G3/8[G/8-B/8-] [G2B2] | [G4B4] | [G2B2] ^C/8A,/8E3/4- E | G2 [D2^F2] | A2 D2 | A2 A,2- | A,/8G3/4-G/8 G [D2^F2] | z4 | z4|]
[V: P12]  z4 | [M: 4/4]  z4|]

